package/converter/svg/light/square-1.svg

<svg xmlns="http://www.w3.org/2000/svg" viewBox="0 0 448 512"><!-- Font Awesome Pro 6.0.0-alpha2 by @fontawesome - https://fontawesome.com License - https://fontawesome.com/license (Commercial License) --><path d="M288 352H240V144C240 138.094 236.75 132.688 231.547 129.906C226.375 127.094 220.047 127.406 215.125 130.688L167.125 162.688C159.766 167.594 157.781 177.531 162.688 184.875C167.563 192.219 177.484 194.188 184.875 189.313L208 173.906V352H160C151.156 352 144 359.156 144 368S151.156 384 160 384H288C296.844 384 304 376.844 304 368S296.844 352 288 352ZM384 32H64C28.654 32 0 60.654 0 96V416C0 451.346 28.654 480 64 480H384C419.346 480 448 451.346 448 416V96C448 60.654 419.346 32 384 32ZM416 416C416 433.645 401.645 448 384 448H64C46.355 448 32 433.645 32 416V96C32 78.355 46.355 64 64 64H384C401.645 64 416 78.355 416 96V416Z"/></svg>

<svg xmlns="http://www.w3.org/2000/svg" viewBox="0 0 448 512"><!--! Font Awesome Pro 6.6.0 by @fontawesome - https://fontawesome.com License - https://fontawesome.com/license (Commercial License) Copyright 2024 Fonticons, Inc. --><path d="M384 64c17.7 0 32 14.3 32 32l0 320c0 17.7-14.3 32-32 32L64 448c-17.7 0-32-14.3-32-32L32 96c0-17.7 14.3-32 32-32l320 0zM64 32C28.7 32 0 60.7 0 96L0 416c0 35.3 28.7 64 64 64l320 0c35.3 0 64-28.7 64-64l0-320c0-35.3-28.7-64-64-64L64 32zm168 98.2c-4.9-2.9-11-2.9-16-.1l-56 32c-7.7 4.4-10.3 14.2-6 21.8s14.2 10.3 21.8 6L208 171.6 208 352l-48 0c-8.8 0-16 7.2-16 16s7.2 16 16 16l64 0 64 0c8.8 0 16-7.2 16-16s-7.2-16-16-16l-48 0 0-208c0-5.7-3-11-8-13.8z"/></svg>
